X:1
T:Title
%%score { ( 1 4 5 ) | ( 2 3 ) }
L:1/8
M:4/4
K:A
V:1 treble nm="Grand Piano"
V:4 treble 
V:5 treble 
V:2 bass 
V:3 bass 
V:1
 z4 z[Q:1/4=108] AGA | [FAd]2 [A,DF]2 [G,D^E]2 [A,DF]2 | [DFA]2 [DFA]2- [DFA]AB=c | %3
 [E=Gc]2 [EG=c]2 [EGB]2 [EG^A]2 |[M:5/8] [E=GA]2 [Acea]2 [Acea] |[M:3/8] AGA | %6
[M:4/4] [Fd]2 F2 ^E2 F2 | [FA]2 [FA]2- [FA][FA][^EG][FA] | [Fd]2 F2 ^E2 F2 |[M:5/8] =G- G3 z | %10
[M:3/8] CE=G |[M:4/4] [C=GB]2 [CGB]2- [CGB][CE][CEG][CGB] | c2 c2- cced | c2 B2 [A,FA]2 [A,E=G]2 | %14
[M:5/8] [A,DF]- [A,DF]3 z |[M:3/8] [FA][^EG][FA] |[M:4/4] [Fd]2 F2 ^E2 F2 | %17
 [FA]2 [FA]2- [FA][FA][^EG][FA] | [EB]2 [EB]2 [Ec]2 [Ed]2 |[M:5/8] e- e3 z |[M:3/8] e^de | %21
[M:4/4] [Gf]2 [Ge]2- [Ge][Ge][Gd][Ge] | f2 e2- ec=c^c | [Ee]2 [Fd]2 [Ec]2 [DB]2 |[M:1/4] [CA]2 | %25
[M:3/4] z2 z2 c2 |[M:4/4] [Fd]4[K:bass][K:treble] [Fe]4 | z4 [FA]4 | %28
 [FB][FA][DF][FA] [FB][FA][DF]A | [C=GB]2 =G,2 G,2 G,2 | [=Gc]4[K:bass][K:treble] [Gd]4 | %31
 z4 [C=G]4 | [=GB]AGA [GB]AGA | [DFB]2 [A,DF]4 Bc | [Fd]4[K:bass][K:treble] [Fe]4 | z4 [FA]4 | %36
 [FB][FA][DF][FA] [FB]AFA | z2 d4 z2 | d6 z2 |[M:17/16] d/-d/-d/-d/-d/-d/-d/-d-<d z/ z/ z/ z/ z | %40
[M:4/4] z2 z [=Gc] [EGB]2 [EGc]2 |[M:5/8] [DFd]-[DFd]- [DFd]3 |] %42
V:2
 z8 | [D,,D,]2 [D,,D,]2 [D,,D,]2 [D,,D,]2 | [D,,D,]A,,D,F, A,4 | %3
 [A,,A,]2 [^A,,^A,]2 [B,,B,]2 [=C,=C]2 |[M:5/8] [C,C]2 [A,,A,]2 [A,,A,] |[M:3/8] A,G,A, | %6
[M:4/4] [D,A,]2 [D,A,D]2 [D,G,D]2 [D,A,D]2 | [D,D]2 [D,D]2- [D,D][D,D][D,D][D,D] | %8
 [D,A,]2 [D,A,D]2 [D,G,D]2 [D,A,D]2 |[M:5/8] [E,A,C]- [E,A,C]3 z |[M:3/8] [E,=G,A,][E,G,C][E,A,C] | %11
[M:4/4] A,,2 A,,2- A,,A,,A,,A,, | [A,E=G]2 [A,EG]2- [A,EG][A,EG][A,CG][A,DG] | %13
 [A,E=G]2 [A,CG]2[K:bass] A,,B,,C,A,, |[M:5/8] D,- D,3 z |[M:3/8] [D,D][D,D][D,D] | %16
[M:4/4] [D,A,]2 [D,A,D]2 [D,G,D]2 [D,A,D]2 | [D,D]2 [D,D]2- [D,D][D,A,][D,B,][D,A,] | %18
 [D,G,]2 [D,G,]2 [C,A,]2 [B,,B,]2 |[M:5/8] [A,,CE]- [A,,CE]3 z | %20
[M:3/8][K:treble] [A,CA][A,=CA][A,^CA] |[M:4/4][K:bass] [E,D]2 [E,D]2- [E,D][E,D][E,D][E,D] | %22
 [A,A]6 z2[K:bass] | [C,A,]2 [D,A,]2 [E,A,]2 [E,G,]2 |[M:1/4] [A,,A,]2 | %25
[M:3/4] [=G,A,C]2 [F,A,D]2 .[E,A,E]2 |[M:4/4] [D,A,]2 z2 [D,A,]2 z F | D,2 A,,2 D,2 A,,2 | %28
 [D,A,]2 [A,,A,]2 [D,A,]2 z F | E,2 A,,2 E,2 A,,2 | [E,A,]2 z2 [E,A,]2 z =G | E,2 A,,2 E,2 A,,2 | %32
 z =G z[K:treble] G z G[K:bass] z G | D,2 D,2- D,[K:treble]AG=G | [D,A,]2 z2 [D,A,]2 z F | %35
 D,2 A,,2 D,2 A,,2 | [D,=C]2 [D,C]2 z[K:treble] FDF | [=G,D=G]2 G2- [G,G]DDD | D6 z2 | %39
[M:17/16] D/-D/-D/-D/-D/-D/-D/-D-<D z/ z/ z/ z/ z |[M:4/4][K:bass] [A,,A,]2 z E A,,2 A,,2 | %41
[M:5/8] D,-D,- D,3 |] %42
V:3
 x8 | x8 | x8 | x8 |[M:5/8] x5 |[M:3/8] x3 |[M:4/4] x8 | x8 | x8 |[M:5/8] x5 |[M:3/8] x3 | %11
[M:4/4] x8 | x8 | x4[K:bass] x4 |[M:5/8] x5 |[M:3/8] x3 |[M:4/4] x8 | x8 | x8 |[M:5/8] x5 | %20
[M:3/8][K:treble] x3 |[M:4/4][K:bass] x8 | D2 C2- C[A,E][A,^D][K:bass][A,E] | x8 |[M:1/4] x2 | %25
[M:3/4] x6 |[M:4/4] z4 z2 A,,2 | x8 | z4 z2 [A,,A,]2 | x8 | z4 z2 A,,2 | x8 | %32
 [E,C]2 A,,2[K:treble] [E,C]2[K:bass] A,,2 | x5[K:treble] x3 | z4 z2 A,,2 | x8 | %36
 z4 [D,=C]2[K:treble] [D,C]2 | z2 [=G,B,]2 z4 | z =CCC B,DDD | %39
[M:17/16] z B,B,B,^A,3/2[A,D^E][A,DE][A,DE] |[M:4/4][K:bass] z2 A,,2 z4 |[M:5/8] x5 |] %42
V:4
 x8 | x8 | x8 | x8 |[M:5/8] x5 |[M:3/8] x3 |[M:4/4] x8 | x8 | x8 |[M:5/8] x5 |[M:3/8] x3 | %11
[M:4/4] x8 | x8 | x8 |[M:5/8] x5 |[M:3/8] x3 |[M:4/4] x8 | x8 | x8 |[M:5/8] x5 |[M:3/8] x3 | %21
[M:4/4] x8 | x8 | x8 |[M:1/4] x2 |[M:3/4] A2 B2 z =G | %26
[M:4/4] z2[K:bass] [A,,A,]2[K:treble] z2 z d | [A,DF]2 [A,FA]2 A,2 A,2 | x8 | z2 [A,C]6 | %30
 z2[K:bass] [A,,A,]2[K:treble] z2 z c | [C=GB]2 [A,CG]2 A,2 A,2 | z2 C2 z2 C2 | x8 | %34
 z2[K:bass] [A,,A,]2[K:treble] z2 z d | [A,DF]2 [A,FA]2 A,2 A,2 | x8 | B2 z2 B,ddd | z FFF =Gddd | %39
[M:17/16] z =GGG^E3/2ddd |[M:4/4] [DFd]4 z4 |[M:5/8] x5 |] %42
V:5
 x8 | x8 | x8 | x8 |[M:5/8] x5 |[M:3/8] x3 |[M:4/4] x8 | x8 | x8 |[M:5/8] x5 |[M:3/8] x3 | %11
[M:4/4] x8 | x8 | x8 |[M:5/8] x5 |[M:3/8] x3 |[M:4/4] x8 | x8 | x8 |[M:5/8] x5 |[M:3/8] x3 | %21
[M:4/4] x8 | x8 | x8 |[M:1/4] x2 |[M:3/4] x6 |[M:4/4] z4[K:bass][K:treble] z2 A,2 | x8 | x8 | x8 | %30
 z4[K:bass][K:treble] z2 A,2 | x8 | x8 | x8 | z4[K:bass][K:treble] z2 A,2 | x8 | x8 | x8 | x8 | %39
[M:17/16] x17/2 |[M:4/4] z2 A,2 z4 |[M:5/8] x5 |] %42

